src/components/8_SocialResponsibility/img/homeless.svg

<svg width="35" height="35" viewBox="0 0 35 35" fill="none" xmlns="http://www.w3.org/2000/svg">
<path d="M5.63473 33.9502C4.30473 33.9502 3.21973 32.8652 3.21973 31.5352V21.2102C3.21973 19.8802 4.30473 18.7952 5.63473 18.7952C6.96473 18.7952 8.04973 19.8802 8.04973 21.2102V31.5352C8.04973 32.8652 6.96473 33.9502 5.63473 33.9502Z" stroke="#E62334" stroke-width="1.5" stroke-miterlimit="10" stroke-linecap="round" stroke-linejoin="round"/>
<path d="M14.4902 33.9502C13.1602 33.9502 12.0752 32.8652 12.0752 31.5352V21.2102C12.0752 19.8802 13.1602 18.7952 14.4902 18.7952C15.8202 18.7952 16.9052 19.8802 16.9052 21.2102V31.5352C16.9052 32.8652 15.8202 33.9502 14.4902 33.9502Z" stroke="#E62334" stroke-width="1.5" stroke-miterlimit="10" stroke-linecap="round" stroke-linejoin="round"/>
<path d="M12.0758 28H8.05078" stroke="#E62334" stroke-width="1.5" stroke-miterlimit="10" stroke-linecap="round" stroke-linejoin="round"/>
<path d="M12.7405 10.325H16.8355C18.1305 10.325 19.1805 11.375 19.1805 12.67C19.1805 13.9649 18.1305 15.0149 16.8355 15.0149H3.32547C2.03047 15.0149 0.980469 13.9649 0.980469 12.67C0.980469 11.375 2.03047 10.325 3.32547 10.325H7.42047" stroke="#E62334" stroke-width="1.5" stroke-miterlimit="10" stroke-linecap="round" stroke-linejoin="round"/>
<path d="M6.16016 7.45505C6.16016 9.62505 7.91016 11.375 10.0802 11.375C12.2502 11.375 14.0002 9.62505 14.0002 7.45505V4.97005C14.0002 2.80005 12.2502 1.05005 10.0802 1.05005C7.91016 1.05005 6.16016 2.80005 6.16016 4.97005V7.45505Z" stroke="#E62334" stroke-width="1.5" stroke-miterlimit="10" stroke-linecap="round" stroke-linejoin="round"/>
<path d="M10.1858 15.0151C8.89082 15.0151 7.84082 13.9651 7.84082 12.6701C7.84082 12.0401 8.08582 11.4801 8.50582 11.0601" stroke="#E62334" stroke-width="1.5" stroke-miterlimit="10" stroke-linecap="round" stroke-linejoin="round"/>
<path d="M16.1699 14.98V19.46" stroke="#E62334" stroke-width="1.5" stroke-miterlimit="10" stroke-linecap="round" stroke-linejoin="round"/>
<path d="M3.95508 14.98V19.46" stroke="#E62334" stroke-width="1.5" stroke-miterlimit="10" stroke-linecap="round" stroke-linejoin="round"/>
<path d="M27.8602 29.0851C31.2623 29.0851 34.0202 28.1763 34.0202 27.0551C34.0202 25.934 31.2623 25.0251 27.8602 25.0251C24.4581 25.0251 21.7002 25.934 21.7002 27.0551C21.7002 28.1763 24.4581 29.0851 27.8602 29.0851Z" stroke="#E62334" stroke-width="1.5" stroke-miterlimit="10" stroke-linecap="round" stroke-linejoin="round"/>
<path d="M34.0202 27.0549V27.4049C34.0202 30.9749 31.2552 33.8799 27.8602 33.8799C24.4652 33.8799 21.7002 30.9749 21.7002 27.4049V27.0549" stroke="#E62334" stroke-width="1.5" stroke-miterlimit="10" stroke-linecap="round" stroke-linejoin="round"/>
</svg>

<svg xmlns="http://www.w3.org/2000/svg" xmlns:xlink="http://www.w3.org/1999/xlink" width="35" height="35" fill="none"><g stroke="#e62334" stroke-width="1.5" stroke-miterlimit="10" stroke-linejoin="round"><use xlink:href="#B"/><use xlink:href="#B" x="8.855"/><path d="M12.076 28H8.051m4.69-17.675h4.095c1.295 0 2.345 1.05 2.345 2.345s-1.05 2.345-2.345 2.345H3.325C2.03 15.015.98 13.965.98 12.67s1.05-2.345 2.345-2.345H7.42" stroke-linecap="round"/><path d="M6.16 7.455c0 2.17 1.75 3.92 3.92 3.92S14 9.625 14 7.455V4.97c0-2.17-1.75-3.92-3.92-3.92S6.16 2.8 6.16 4.97v2.485z"/><path d="M10.185 15.015c-1.295 0-2.345-1.05-2.345-2.345 0-.63.245-1.19.665-1.61m7.665 3.92v4.48M3.955 14.98v4.48" stroke-linecap="round"/><path d="M27.861 29.085c3.402 0 6.16-.909 6.16-2.03s-2.758-2.03-6.16-2.03-6.16.909-6.16 2.03 2.758 2.03 6.16 2.03z"/><path d="M34.021 27.055v.35c0 3.57-2.765 6.475-6.16 6.475s-6.16-2.905-6.16-6.475v-.35" stroke-linecap="round"/></g><defs ><path id="B" d="M5.636 33.95a2.42 2.42 0 0 1-2.415-2.415V21.21a2.42 2.42 0 0 1 2.415-2.415 2.42 2.42 0 0 1 2.415 2.415v10.325a2.42 2.42 0 0 1-2.415 2.415z"/></defs></svg>
